humanity-icon-theme/Humanity/mimes/24/application-rss+xml.svg

<?xml version="1.0" encoding="UTF-8" standalone="no"?>
<!-- Created with Inkscape (http://www.inkscape.org/) -->

<svg
   xmlns:svg="http://www.w3.org/2000/svg"
   xmlns="http://www.w3.org/2000/svg"
   xmlns:xlink="http://www.w3.org/1999/xlink"
   version="1.0"
   width="24"
   height="24"
   id="svg2755">
  <defs
     id="defs2757">
    <linearGradient
       id="linearGradient5048">
      <stop
         id="stop5050"
         style="stop-color:#000000;stop-opacity:0"
         offset="0" />
      <stop
         id="stop5056"
         style="stop-color:#000000;stop-opacity:1"
         offset="0.5" />
      <stop
         id="stop5052"
         style="stop-color:#000000;stop-opacity:0"
         offset="1" />
    </linearGradient>
    <linearGradient
       x1="302.85715"
       y1="366.64789"
       x2="302.85715"
       y2="609.50507"
       id="linearGradient2673"
       xlink:href="#linearGradient5048"
       gradientUnits="userSpaceOnUse"
       gradientTransform="matrix(0.0352071,0,0,0.00823529,-0.724852,18.980551)" />
    <radialGradient
       cx="605.71429"
       cy="486.64789"
       r="117.14286"
       fx="605.71429"
       fy="486.64789"
       id="radialGradient2670"
       xlink:href="#linearGradient5060"
       gradientUnits="userSpaceOnUse"
       gradientTransform="matrix(-0.01204859,0,0,0.00823529,10.761206,18.980568)" />
    <linearGradient
       id="linearGradient5060">
      <stop
         id="stop5062"
         style="stop-color:#000000;stop-opacity:1"
         offset="0" />
      <stop
         id="stop5064"
         style="stop-color:#000000;stop-opacity:0"
         offset="1" />
    </linearGradient>
    <radialGradient
       cx="605.71429"
       cy="486.64789"
       r="117.14286"
       fx="605.71429"
       fy="486.64789"
       id="radialGradient2667"
       xlink:href="#linearGradient5060"
       gradientUnits="userSpaceOnUse"
       gradientTransform="matrix(0.01204859,0,0,0.00823529,13.238794,18.980568)" />
    <linearGradient
       x1="-53.412315"
       y1="56.110264"
       x2="-51.786404"
       y2="2.9062471"
       id="linearGradient2664"
       xlink:href="#linearGradient2490-113"
       gradientUnits="userSpaceOnUse"
       gradientTransform="matrix(0.3922135,0,0,0.4473607,29.199293,-1.2386997)" />
    <linearGradient
       id="linearGradient3211">
      <stop
         id="stop3213"
         style="stop-color:#ffffff;stop-opacity:1"
         offset="0" />
      <stop
         id="stop3215"
         style="stop-color:#ffffff;stop-opacity:0"
         offset="1" />
    </linearGradient>
    <linearGradient
       x1="24"
       y1="1.9999999"
       x2="24"
       y2="46.01725"
       id="linearGradient2656"
       xlink:href="#linearGradient3211"
       gradientUnits="userSpaceOnUse"
       gradientTransform="matrix(0.4545444,0,0,0.4651153,1.0909345,0.3372293)" />
    <linearGradient
       id="linearGradient8589">
      <stop
         id="stop8591"
         style="stop-color:#fefefe;stop-opacity:1"
         offset="0" />
      <stop
         id="stop8593"
         style="stop-color:#cbcbcb;stop-opacity:1"
         offset="1" />
    </linearGradient>
    <linearGradient
       x1="32.892288"
       y1="8.0590115"
       x2="36.358372"
       y2="5.4565363"
       id="linearGradient2652"
       xlink:href="#linearGradient8589"
       gradientUnits="userSpaceOnUse"
       gradientTransform="matrix(0.4778466,0,0,0.5524833,0.3722548,-0.0761283)" />
    <radialGradient
       cx="8.1203003"
       cy="6.6278195"
       r="8.999999"
       fx="8.1203003"
       fy="6.6278195"
       id="radialGradient3679"
       xlink:href="#linearGradient3174"
       gradientUnits="userSpaceOnUse"
       gradientTransform="matrix(0.01444031,2.0653773,-3.052092,0.02133905,28.231755,-11.638481)" />
    <linearGradient
       id="linearGradient3174">
      <stop
         id="stop3176"
         style="stop-color:#ffed8c;stop-opacity:1"
         offset="0" />
      <stop
         id="stop3178"
         style="stop-color:#fb9858;stop-opacity:1"
         offset="0.39698008" />
      <stop
         id="stop3180"
         style="stop-color:#dc572a;stop-opacity:1"
         offset="1" />
    </linearGradient>
    <linearGradient
       id="linearGradient2490-113">
      <stop
         id="stop3468"
         style="stop-color:#791116;stop-opacity:1"
         offset="0" />
      <stop
         id="stop3470"
         style="stop-color:#dd7126;stop-opacity:1"
         offset="1" />
    </linearGradient>
  </defs>
  <g
     id="layer1">
    <rect
       width="17"
       height="1.9999981"
       x="3.5000005"
       y="21.999998"
       id="rect2879"
       style="opacity:0.15;fill:url(#linearGradient2673);fill-opacity:1;fill-rule:nonzero;stroke:none;stroke-width:1;marker:none;visibility:visible;display:inline;overflow:visible" />
    <path
       d="m 3.5,22.000086 c 0,0 0,1.999889 0,1.999889 C 2.8795275,24.00374 2,23.551901 2,22.999901 2,22.447902 2.6924,22.000086 3.5,22.000086 z"
       id="path2881"
       style="opacity:0.15;fill:url(#radialGradient2670);fill-opacity:1;fill-rule:nonzero;stroke:none;stroke-width:1;marker:none;visibility:visible;display:inline;overflow:visible" />
    <path
       d="m 20.5,22.000086 c 0,0 0,1.999889 0,1.999889 0.620472,0.0038 1.5,-0.448074 1.5,-1.000074 0,-0.551999 -0.692401,-0.999815 -1.5,-0.999815 z"
       id="path2883"
       style="opacity:0.15;fill:url(#radialGradient2667);fill-opacity:1;fill-rule:nonzero;stroke:none;stroke-width:1;marker:none;visibility:visible;display:inline;overflow:visible" />
    <path
       d="m 3.4999617,0.49996097 c 3.8955799,0 7.6044553,0 11.5000383,0 C 15.683368,0.73725787 19.541325,3.628131 20.5,5.5 c 0,5.729157 3.9e-5,11.270881 3.9e-5,17.000039 -5.666693,0 -11.3333845,0 -17.0000773,0 0,-7.33336 0,-14.6667201 0,-22.00007803 z"
       id="path4160"
       style="fill:url(#radialGradient3679);fill-opacity:1;stroke:url(#linearGradient2664);stroke-width:0.99992162;stroke-linecap:butt;stroke-linejoin:round;stroke-miterlimit:4;stroke-opacity:1;stroke-dasharray:none;stroke-dashoffset:0;display:inline" />
    <path
       d="m 5.0696154,19.798636 c 0,-0.346563 0.1166201,-0.637512 0.3498365,-0.872849 0.2332313,-0.239596 0.5185176,-0.3594 0.8558589,-0.35941 0.329009,10e-6 0.6080479,0.119814 0.8371095,0.35941 0.2332239,0.235337 0.3498357,0.526286 0.3498357,0.872849 0,0.338024 -0.1166118,0.626834 -0.3498357,0.86643 -0.2290616,0.235336 -0.5081005,0.353 -0.8371095,0.352991 -0.3373413,9e-6 -0.6226276,-0.117655 -0.8558589,-0.352991 C 5.1862355,20.429748 5.0696154,20.140939 5.0696154,19.798636 M 5,14.233737 5,16.283688 c 2.5522025,0 4.6251419,2.130957 4.6251419,4.754597 l 2.0045731,0 C 11.629715,17.280098 8.6558571,14.233737 5,14.233737 z m 0.00345,-4.4855523 0,2.2659823 c 4.8458029,0 8.780357,4.042188 8.780357,9.020562 l 2.216196,0 C 16.000019,14.802808 11.069439,9.7481847 5.0034628,9.7481847 z"
       id="path3349"
       style="font-size:13.58991337px;font-style:normal;font-variant:normal;font-weight:bold;font-stretch:normal;text-align:start;line-height:125%;writing-mode:lr-tb;text-anchor:start;opacity:0.4;fill:#ffffff;fill-opacity:1;stroke:none;font-family:Bitstream Vera Serif" />
    <path
       d="m 5.0696154,19.05045 c 0,-0.346563 0.1166201,-0.637512 0.3498365,-0.872849 0.2332313,-0.239595 0.5185176,-0.3594 0.8558589,-0.359408 0.329009,8e-6 0.6080487,0.119813 0.8371102,0.359408 0.2332232,0.235337 0.349835,0.526286 0.349835,0.872849 0,0.338025 -0.1166118,0.626835 -0.349835,0.866432 C 6.8833595,20.152217 6.6043198,20.26988 6.2753108,20.269874 5.9379695,20.26988 5.6526832,20.152217 5.4194519,19.916882 5.1862355,19.681564 5.0696154,19.392754 5.0696154,19.05045 M 5,13.485552 5,15.535503 c 2.5522032,0 4.6251419,2.130959 4.6251419,4.754597 l 2.0045731,0 C 11.629715,16.531914 8.6558571,13.485552 5,13.485552 z M 5.0034475,9 l 0,2.265983 c 4.8458029,0 8.7803575,4.042187 8.7803575,9.020563 l 2.216196,0 C 16.000019,14.054622 11.069439,9 5.0034628,9 z"
       id="path4311"
       style="font-size:13.58991337px;font-style:normal;font-variant:normal;font-weight:bold;font-stretch:normal;text-align:start;line-height:125%;writing-mode:lr-tb;text-anchor:start;fill:#8a3a12;fill-opacity:1;stroke:none;font-family:Bitstream Vera Serif" />
    <path
       d="m 19.500001,5.6770357 c 0,5.2083053 0,10.6146573 0,15.8229643 -5,0 -9.9999998,0 -15.000001,0 0,-6.66667 0,-13.3333343 0,-20.0000001 3.4372614,0 6.956499,0 10.393761,0"
       id="path2435"
       style="opacity:0.6;fill:none;stroke:url(#linearGradient2656);stroke-width:0.99999988;stroke-linecap:butt;stroke-linejoin:miter;stroke-miterlimit:4;stroke-opacity:1;stroke-dasharray:none;stroke-dashoffset:0;display:inline" />
    <path
       d="m 14.075474,1 c 1.156303,0.3287671 0.339059,4.6143789 0.339059,4.6143789 0,0 4.515388,-0.4277362 5.60771,1.1949961 C 21.511396,9.0216317 19.954018,6.1742029 19.848796,5.9876778 19.092868,4.6476323 15.982456,1.4405918 14.803387,1.0464703 14.715155,1.0169778 14.519511,1 14.075474,1 z"
       id="path3370"
       style="opacity:0.3;fill:#000000;fill-opacity:1;fill-rule:evenodd;stroke:none;display:inline" />
    <path
       d="m 14,0 c 1.526166,0 1,5 1,5 0,0 6.074781,-0.45326 6.074781,2 0,-0.5977419 0.04504,-1.8225012 -0.07478,-2 -0.839107,-1.2430058 -4.670755,-4.68212189 -6,-5 -0.09048,-0.02163788 -0.555963,0 -1,0 z"
       id="path4474"
       style="fill:url(#linearGradient2652);fill-opacity:1;fill-rule:evenodd;stroke:none;display:inline" />
  </g>
</svg>

<?xml version="1.0" encoding="UTF-8" standalone="no"?>
<!-- Created with Inkscape (http://www.inkscape.org/) -->
<svg id="svg2755" xmlns="http://www.w3.org/2000/svg" height="24" width="24" version="1.0" xmlns:xlink="http://www.w3.org/1999/xlink">
 <defs id="defs2757">
  <linearGradient id="linearGradient2673" y2="609.51" gradientUnits="userSpaceOnUse" x2="302.86" gradientTransform="matrix(.035207 0 0 .0082353 -.72485 18.981)" y1="366.65" x1="302.86">
   <stop id="stop5050" style="stop-opacity:0" offset="0"/>
   <stop id="stop5056" offset=".5"/>
   <stop id="stop5052" style="stop-opacity:0" offset="1"/>
  </linearGradient>
  <radialGradient id="radialGradient2670" xlink:href="#linearGradient5060" gradientUnits="userSpaceOnUse" cy="486.65" cx="605.71" gradientTransform="matrix(-.012049 0 0 .0082353 10.761 18.981)" r="117.14"/>
  <linearGradient id="linearGradient5060">
   <stop id="stop5062" offset="0"/>
   <stop id="stop5064" style="stop-opacity:0" offset="1"/>
  </linearGradient>
  <radialGradient id="radialGradient2667" xlink:href="#linearGradient5060" gradientUnits="userSpaceOnUse" cy="486.65" cx="605.71" gradientTransform="matrix(.012049 0 0 .0082353 13.239 18.981)" r="117.14"/>
  <linearGradient id="linearGradient2664" y2="2.9062" gradientUnits="userSpaceOnUse" x2="-51.786" gradientTransform="matrix(.39221 0 0 .44736 29.199 -1.2387)" y1="56.11" x1="-53.412">
   <stop id="stop3468" style="stop-color:#791116" offset="0"/>
   <stop id="stop3470" style="stop-color:#dd7126" offset="1"/>
  </linearGradient>
  <linearGradient id="linearGradient2656" y2="46.017" gradientUnits="userSpaceOnUse" x2="24" gradientTransform="matrix(.45454 0 0 .46512 1.0909 .33723)" y1="2" x1="24">
   <stop id="stop3213" style="stop-color:#fff" offset="0"/>
   <stop id="stop3215" style="stop-color:#fff;stop-opacity:0" offset="1"/>
  </linearGradient>
  <linearGradient id="linearGradient2652" y2="5.4565" gradientUnits="userSpaceOnUse" x2="36.358" gradientTransform="matrix(.47785 0 0 .55248 .37225 -.076128)" y1="8.059" x1="32.892">
   <stop id="stop8591" style="stop-color:#fefefe" offset="0"/>
   <stop id="stop8593" style="stop-color:#cbcbcb" offset="1"/>
  </linearGradient>
  <radialGradient id="radialGradient3679" gradientUnits="userSpaceOnUse" cy="6.6278" cx="8.1203" gradientTransform="matrix(.014440 2.0654 -3.0521 .021339 28.232 -11.638)" r="9">
   <stop id="stop3176" style="stop-color:#ffed8c" offset="0"/>
   <stop id="stop3178" style="stop-color:#fb9858" offset=".39698"/>
   <stop id="stop3180" style="stop-color:#dc572a" offset="1"/>
  </radialGradient>
 </defs>
 <g id="layer1">
  <rect id="rect2879" style="opacity:.15;fill:url(#linearGradient2673)" height="2" width="17" y="22" x="3.5"/>
  <path id="path2881" style="opacity:.15;fill:url(#radialGradient2670)" d="m3.5 22v1.9999c-0.6205 0.004-1.5-0.448-1.5-1s0.6924-1 1.5-1z"/>
  <path id="path2883" style="opacity:.15;fill:url(#radialGradient2667)" d="m20.5 22v1.9999c0.62047 0.0038 1.5-0.44807 1.5-1.0001 0-0.552-0.6924-0.99982-1.5-0.99982z"/>
  <path id="path4160" style="stroke-linejoin:round;stroke:url(#linearGradient2664);stroke-width:.99992;fill:url(#radialGradient3679)" d="m3.5 0.49996h11.5c0.683 0.2373 4.541 3.1281 5.5 5 0 5.7292 0.000039 11.271 0.000039 17h-17v-22z"/>
  <path id="path3349" style="opacity:.4;fill:#fff" d="m5.0696 19.799c0-0.34656 0.11662-0.63751 0.34984-0.87285 0.23323-0.2396 0.51852-0.3594 0.85586-0.35941 0.32901 0.00001 0.60805 0.11981 0.83711 0.35941 0.23322 0.23534 0.34984 0.52629 0.34984 0.87285 0 0.33802-0.11661 0.62683-0.34984 0.86643-0.22906 0.23534-0.5081 0.353-0.83711 0.35299-0.33734 0.000009-0.62263-0.11766-0.85586-0.35299-0.2332-0.235-0.3498-0.524-0.3498-0.866m-0.0696-5.565v2.05c2.5522 0 4.6251 2.131 4.6251 4.7546h2.0046c0-3.759-2.9741-6.805-6.63-6.805zm0.00345-4.4856v2.266c4.8458 0 8.7804 4.0422 8.7804 9.0206h2.2162c0-6.232-4.931-11.287-10.996-11.287z"/>
  <path id="path4311" style="fill:#8a3a12" d="m5.0696 19.05c0-0.34656 0.11662-0.63751 0.34984-0.87285 0.23323-0.2396 0.51852-0.3594 0.85586-0.35941 0.32901 0.000008 0.60805 0.11981 0.83711 0.35941 0.23322 0.23534 0.34984 0.52629 0.34984 0.87285 0 0.33802-0.11661 0.62684-0.34984 0.86643-0.229 0.236-0.5081 0.354-0.8371 0.354-0.3373 0-0.6226-0.118-0.8558-0.353-0.2333-0.235-0.3499-0.524-0.3499-0.867m-0.0696-5.564v2.05c2.5522 0 4.6251 2.131 4.6251 4.7546h2.0046c0-3.759-2.9741-6.805-6.63-6.805zm0.0034-4.486v2.266c4.8458 0 8.7804 4.0422 8.7804 9.0206h2.2162c0-6.232-4.931-11.287-10.996-11.287z"/>
  <path id="path2435" style="opacity:.6;stroke:url(#linearGradient2656);fill:none" d="m19.5 5.677v15.823h-15v-20h10.394"/>
  <path id="path3370" style="opacity:.3;fill-rule:evenodd" d="m14.075 1c1.1563 0.32877 0.33906 4.6144 0.33906 4.6144s4.5154-0.42774 5.6077 1.195c1.489 2.2122-0.068-0.6352-0.173-0.8217-0.756-1.3401-3.867-4.5471-5.046-4.9412-0.088-0.0295-0.283-0.0465-0.728-0.0465z"/>
  <path id="path4474" style="fill:url(#linearGradient2652);fill-rule:evenodd" d="m14 0c1.5262 0 1 5 1 5s6.0748-0.45326 6.0748 2c0-0.59774 0.04504-1.8225-0.07478-2-0.83911-1.243-4.6708-4.6821-6-5-0.09048-0.021638-0.55596 0-1 0z"/>
 </g>
</svg>
